X:1
T:Rattigan's
T:Larry Redican's Reel
R:reel
M:4/4
L:1/8
K:G
GB|AGEG DG,B,D|BAGA BedB|AGED B,DA,D|B,~A,3 B,EED|
E2DE GEDB,|DDB,D DG,B,D|EDEG DEGA |1 BdAB G4 :|2 BdAB G2|]
Bc|dGFG EGDC|B,G,B,D GBdg|e~c3 AGFA|DFAd fedc|
dGFG EGDC|B,G,B,D GBdg|e~c3 efge|dBAB G2:|
</abc>
